X:1
T:Vidi speciosam
T:Giovanni Baptista Riccio 1644 - 1704
T:Original in C
T:Vidi speciosam
T:Canticum Canticorum
T:(C) Wim Looyestijn - 2016. May be freely copied for non-commercial use.
T:(C) Wim Looyestijn - 2016. May be freely copied for non-commercial use.
T:(C) Wim Looyestijn - 2016. May be freely copied for non-commercial use.
T:(C) Wim Looyestijn - 2016. May be freely copied for non-commercial use.
T:(C) Wim Looyestijn - 2016. May be freely copied for non-commercial use.
T:(C) Wim Looyestijn - 2016. May be freely copied for non-commercial use.
T:(C) Wim Looyestijn - 2016. May be freely copied for non-commercial use.
T:(C) Wim Looyestijn - 2016. May be freely copied for non-commercial use.
T:(C) Wim Looyestijn - 2016. May be freely copied for non-commercial use.
T:(C) Wim Looyestijn - 2016. May be freely copied for non-commercial use.
C:Giovanni Baptista Riccio
C:1644 - 1704
Z:(C) Wim Looyestijn - 2016. May be freely copied for non-commercial use.
%%score 1 2 3
L:1/8
Q:1/4=120
M:4/2
K:D
V:1 bass nm="Basso-1"
V:2 bass nm="Basso-2"
V:3 bass nm="B.C."
V:1
 z16 | z8 E,8 | B,12 A,4 | G,4 F,4 E,8 | B,,8 z8 | z16 | z16 | B,12 A,4 | G,4 F,4 E,3 D, E,F,G,E, | %9
w: |Vi-|* di|spe- ci- o-|sam,|||vi- di|spe- ci- o- * * * * *|
 F,2 E,D, C,4 B,,8 | E,4 E,2 ^D,2 F,8 | B,,4 B,,2 C,2 D,C,D,E, F,G,A,F, | G,A,B,G, A,4 G,4 B,4- | %13
w: * * * * sam|si- cut co- lum-|ba a- scen- den- * * * * * * *|* * * * * tem de-|
 B,4 F,4 G,4 B,4 | ^A,2 B,4 A,2 B,8 |[M:6/2] z24 | z24 | z24 | z24 | B,8 B,8 F,8 | G,16 ^D,8 | %21
w: * su- per ri-|vos a- qua- rum,|||||cu- jus in-|ae- sti-|
 E,16 E,8 | G,8 F,16 | B,,16 z8 | z24 | B,,4 C,4 D,4 E,4 F,8 | ^D,8 E,8 F,8 | B,,24 | z24 | z24 | %30
w: ma- bi-|lis o-|dor||e- * * * *|rat ni- *|mis|||
 A,8 A,8 A,8 | E,16 E,8 | A,,24 | D,16 z8 | z24 | z24 | E,8 E,8 E,8 | A,16 A,8 | D,8 D,8 D,8 | %39
w: in ves- ti-|men- tis|e-|jus,|||in ves- ti-|men- tis,|in ves- ti-|
 G,16 G,8 | F,4 E,4 F,4 G,4 A,8 | D,16 z8 | G,16 G,8 | G,12 B,4 G,8 | F,8 F,16 |[M:4/2] B,8 z8 | %46
w: men- tis|e- * * * *|jus,|ves- ti-|men- tis e-|jus, e-|jus.|
 z8 z4 B,4 | F,4 A,4 E,2 G,2 F,4 | B,,4 z4 z4 F,4 | ^D,4 E,4 F,2 G,2 F,4 | B,,16 | z4 F,4 B,8- | %52
w: Et|si- cut di- es ver-|ni, et|si- cut di- es ver-|ni,|et si-|
 B,4 A,4 G,4 F,4 | E,8 B,,4 E,4- | E,4 C,4 D,4 D,4 | C,8 B,,8 | z4 F,4 ^D,2 E,2 B,,4 | %57
w: * cut di- es|ver- ni cir-|* cum- da- bant|e- am|flo- res ro- sa-|
 B,,2 D,2 F,3 F, E,2 C,2 A,,3 A,, | B,,2 B,,2 E,3 E, E,4 B,4 | E,3 F, G,2 E,2 F,G,A,G, F,3 F, | %60
w: rum et li- li- a con- val- li-|um, con- val- li- um, et|li- li- a con- val- * * * * li-|
 B,8 z8 | z4 B,4 ^G,3 A, B,2 G,2 | A,G,F,E, D,2 C,B,, A,,3 A,, D,2 G,2 | G,2 F,E, F,3 F, B,,8 | %64
w: um,|et li- li- a con-|val- * * * * * * * li- um, con-|val- * * * li- um,|
 z8 E,4 F,3 F, | ^G,2 B,2 A,3 F, E,2 G,2 B,3 B, | G,2 F,2 E,8 ^D,4 | E,16 |] %68
w: et li- li-|a con- val- li- um, et li- li-|a con- val- li-|um.|
V:2
 E,8 B,8- | B,4 A,4 G,4 F,4 | E,8 B,,8 | z8 B,8- | B,4 A,4 G,4 F,4 | E,3 D, E,F,G,E, F,2 E,D, C,4 | %6
w: Vi- *|* di spe- ci-|o- sam,|vi-|* di spe- ci-|o- * * * * * * * * *|
 B,,4 E,4 E,2 ^D,2 F,4 | B,,4 B,,2 C,2 D,C,D,E, F,G,A,F, | G,A,B,G, A,4 B,8 | z8 B,6 F,2 | %10
w: sam si- cut co- lum-|ba a- scen- den- * * * * * * *|* * * * * tem|de- su-|
 G,4 B,4 ^A,2 B,4 A,2 | B,8 z8 | z8 E,8- | E,4 ^D,4 E,4 G,4 | F,2 D,2 C,4 B,,8 | %15
w: per ri- vos a- qua-|rum,|de-|* su- per ri-|vos a- qua- rum:|
[M:6/2] B,8 B,8 F,8 | G,16 ^D,8 | E,16 E,8 | G,8 F,16 | B,,16 z8 | z24 | z24 | z24 | %23
w: cu- jus in-|ae- sti-|ma- bi-|lis o-|dor||||
 B,,4 C,4 D,4 E,4 F,8 | ^D,8 E,8 F,8 | B,,16 z8 | z24 | B,,8 B,,8 B,,8 | E,16 E,8 | %29
w: e- * * * *|rat ni- *|mis||in ves- ti-|men- tis|
 A,,4 B,,4 C,4 D,4 E,8 | A,,24 | E,8 E,8 E,8 | A,16 A,8 | F,4 E,4 F,4 G,4 A,8 | D,24 | %35
w: e- * * * *|jus,|in ves- ti-|men- tis|e * * * *|jus,|
 B,,8 B,,8 B,,8 | E,16 E,8 | A,,8 A,,8 A,,8 | D,16 D,8 | G,,16 G,,8 | z24 | D,4 C,4 D,4 E,4 F,8 | %42
w: in ves- ti-|men- tis,|in ves- ti-|men- tis|e- jus,||e- * * * *|
 B,,16 B,,8 | E,12 E,4 E,8 | ^D,8 F,16 |[M:4/2] B,,4 B,4 F,4 A,4 | E,2 G,2 F,4 B,,8 | z8 z4 F,4 | %48
w: jus, in|ves- ti- men-|tis e-|jus. Et si- cut|di- es ver- ni,|et|
 ^D,4 E,4 F,2 G,2 F,4 | B,,4 z4 z4 F,4 | B,12 A,4 | G,4 F,4 E,8 | B,,16 | z8 z4 ^G,4- | %54
w: si- cut di- es ver-|ni, et|si- cut|di- es ver-|ni|cir-|
 G,4 A,4 F,2 F,2 B,4- | B,4 ^A,4 B,4 B,4 | ^G,2 A,2 F,4 B,,2 E,2 A,,B,,C,A,, | %57
w: * cum- da- bant e-|* * am flo-|res ro- sa- rum et li- * * *|
 B,,3 C, D,2 D,2 E,3 E, A,2 =C2 | B,3 B, G,2 E,2 C,3 A,, B,,2 B,,2 | E,F,G,A, B,3 G, A,4 z2 F,2 | %60
w: * li- a, et li- li- a con-|val- li- um, et li- li- a con-|val- * * * * li- um, et|
 B,,3 C, D,2 B,,2 C,D,E,D, C,2 B,,A,, | B,,6 B,,2 E,8 | z16 | z4 z2 F,2 ^D,3 E, F,2 D,2 | %64
w: li- li- a con- val- * * * * * *|* li- um,||et li- li- a con-|
 E,D,C,B,, A,,B,,C,D, E,2 D,C, B,,3 B,, | E,2 E,2 A,3 A, G,2 E,2 B,,3 B,, | E,4 G,4 F,6 F,2 | %67
w: val- * * * * * * * * * * * li-|um, et li- li- a con- val- li-|um, con- val- li-|
 E,16 |] %68
w: um.|
V:3
 E,8 B,8- | B,4 A,4 E,4- E,4 | E,8 B,,4- B,,4 | G,4 F,4 E,8 | B,,4- B,,4 G,4 F,4 | %5
w: |* * 3 2|* * 7||* 7 * *|
 E,3 D, E,F,G,E, F,2 E,D, C,4 | B,,4 E,4 E,2 ^D,2 F,4 | B,,4 B,,2 C,2 D,C,D,E, F,4 | %8
w: |* * * 6 *||
 G,4 F,4 E,3 D, E,F,G,E, | F,2 E,D, C,4 B,,6 B,,2 | E,4 E,2 ^D,2 F,8 | B,,4 B,,2 C,2 D,C,D,E, F,4 | %12
w: ||||
 G,4 A,4 E,8- | E,4 ^D,4 E,4 G,4 | F,2 D,2 C,4 B,,8 |[M:6/2] B,8 B,8 F,8 | G,16 ^D,8 | E,16 E,8 | %18
w: |* 6 * *|* 6 7``6 *||* 6||
 G,8 F,16 | B,8 B,8 F,8 | G,16 ^D,8 | E,16 E,8 | G,8 F,16 | B,,4 C,4 D,4 E,4 F,8 | ^D,8 E,8 F,8 | %25
w: ||||||6 * *|
 B,,4 C,4 D,4 E,4 F,8 | ^D,8 E,8 F,8 | B,,8 B,,8 B,,8 | E,16 E,8 | A,,4 B,,4 C,4 D,4 E,8 | %30
w: |6 * *||||
 A,,8 A,,8 A,,8 | E,8 E,8 E,8 | A,,16 A,,8 | D,8 D,8 A,,8 | D,24 | B,,8 B,,8 B,,8 | E,8 E,8 E,8 | %37
w: |||||||
 A,,8 A,,8 A,,8 | D,8 D,8 D,8 | G,,16 G,8 | F,4 E,4 F,4 G,4 A,8 | D,4 C,4 D,4 E,4 F,8 | B,,24 | %43
w: ||||||
 E,12 E,4 E,8 | ^D,8 F,16 |[M:4/2] B,,4 B,4 F,4 A,4 | E,2 G,2 F,4 B,,4 B,4 | F,4 A,4 E,2 G,2 F,4 | %48
w: |6 *||||
 B,,4 E,4 F,2 G,2 F,4 | B,,4 E,4 F,2 G,2 F,4 | B,,8 B,,4- B,,4 | G,4 F,4 E,8 | %52
w: ||* * 7||
 B,,4- B,,4 B,,4- B,,4 | E,8 B,,4 E,4- | E,4 C,4 D,4 D,4 | C,8 B,,4 B,4 | %56
w: * 7 6 5|* * x|* 6 * 6|7```6 * *|
 ^G,2 A,2 F,4 B,,2 E,2 A,,B,,C,A,, | B,,3 C, D,2 D,2 E,2 C,2 A,,4 | B,,4 E,4 C,3 A,, B,,4 | %59
w: |* * * * x * z||
 E,3 F, G,2 E,2 F,G,A,G, F,2 F,2 | B,,3 C, D,2 B,,2 C,D,E,D, C,2 B,,A,, | B,,8 E,8 | %62
w: |||
 A,G,F,E, D,2 C,B,, A,,4 D,2 G,2 | G,2 F,E, F,4 B,,6 B,,2 | %64
w: ||
 E,D,C,B,, A,,B,,C,D, E,2 D,C, B,,3 B,, | E,2 E,2 A,,3 D, E,2 E,2 B,,3 B,, | E,8 B,,8 | E,16 |] %68
w: ||* 4`````3||

